dist/img/icons/docs/table.svg

<svg xmlns="http://www.w3.org/2000/svg" viewBox="0 0 128 128" width="512" height="512"><rect x="8.165" y="19.667" width="115.67" height="92.666" rx="1" ry="1" fill="#e6e7e8"/><path fill="#d4fbff" d="M5.165 16.667h113.67v90.667H5.165z"/><path fill="#0089ef" d="M5.165 16.667h28.417v90.667H5.165z"/><path fill="#fa759e" d="M5.165 16.667h113.67v15.111H5.165z"/><path fill="#fff" d="M5.165 16.667h113.67v3H5.165z"/><path d="M118.835 15.667H5.165a1 1 0 00-1 1V50.5a1 1 0 002 0v-2.611h26.417V61H6.165v-7a1 1 0 00-2 0v11a1 1 0 002 0v-2h26.417v13.111H6.165v-7.277a1 1 0 00-2 0v38.5a1 1 0 001 1h113.67a1 1 0 001-1V16.667a1 1 0 00-1-1zM61 93.223v13.111H34.582V93.223zm-26.418-2V78.111H61v13.112zm28.418 2h26.418v13.111H63zm0-2V78.111h26.418v13.112zm-2-60.445H34.582V17.667H61zm2-13.111h26.418v13.111H63zm-2 15.111v13.111H34.582V32.778zm2 0h26.418v13.111H63zM91.418 61V47.889h26.417V61zm26.417 2v13.111H91.418V63zM91.418 45.889V32.778h26.417v13.111zm-2 2V61H63V47.889zm0 15.111v13.111H63V63zm2 15.111h26.417v13.112H91.418zm26.417-47.333H91.418V17.667h26.417zM32.582 17.667v13.111H6.165V17.667zM6.165 45.889V32.778h26.417v13.111zm28.417 2H61V61H34.582zm0 15.111H61v13.111H34.582zm-2 15.111v13.112H6.165V78.111zM6.165 93.223h26.417v13.111H6.165zm85.253 13.111V93.223h26.417v13.111z" fill="#3a2c60"/></svg>

<?xml version="1.0"?>
<svg xmlns="http://www.w3.org/2000/svg" viewBox="0 0 128 128" width="512" height="512"><rect x="8.165" y="19.667" width="115.67" height="92.666" rx="1" ry="1" fill="#e6e7e8"/><rect x="5.165" y="16.667" width="113.67" height="90.667" fill="#d4fbff"/><rect x="5.165" y="16.667" width="28.417" height="90.667" fill="#0089ef"/><rect x="5.165" y="16.667" width="113.67" height="15.111" fill="#fa759e"/><rect x="5.165" y="16.667" width="113.67" height="3" fill="#fff"/><path d="M118.835,15.667H5.165a1,1,0,0,0-1,1V50.5a1,1,0,0,0,2,0V47.889H32.582V61H6.165V54a1,1,0,0,0-2,0V65a1,1,0,0,0,2,0V63H32.582V76.111H6.165V68.834a1,1,0,0,0-2,0v38.5a1,1,0,0,0,1,1h113.67a1,1,0,0,0,1-1V16.667A1,1,0,0,0,118.835,15.667ZM61,93.223v13.111H34.582V93.223Zm-26.418-2V78.111H61V91.223Zm28.418,2H89.418v13.111H63Zm0-2V78.111H89.418V91.223ZM61,30.778H34.582V17.667H61Zm2-13.111H89.418V30.778H63ZM61,32.778V45.889H34.582V32.778Zm2,0H89.418V45.889H63ZM91.418,61V47.889h26.417V61Zm26.417,2V76.111H91.418V63ZM91.418,45.889V32.778h26.417V45.889Zm-2,2V61H63V47.889Zm0,15.111V76.111H63V63Zm2,15.111h26.417V91.223H91.418Zm26.417-47.333H91.418V17.667h26.417ZM32.582,17.667V30.778H6.165V17.667ZM6.165,45.889V32.778H32.582V45.889Zm28.417,2H61V61H34.582Zm0,15.111H61V76.111H34.582Zm-2,15.111V91.223H6.165V78.111ZM6.165,93.223H32.582v13.111H6.165Zm85.253,13.111V93.223h26.417v13.111Z" fill="#3a2c60"/></svg>
